src/apps/scalable/indicator-weather.svg

<svg width="64" height="64" version="1.1" xmlns="http://www.w3.org/2000/svg" xmlns:xlink="http://www.w3.org/1999/xlink">
 <defs>
  <filter id="filter8" x="-.012" y="-.012" width="1.024" height="1.024" color-interpolation-filters="sRGB">
   <feGaussianBlur stdDeviation="0.074081873"/>
  </filter>
  <linearGradient id="linearGradient3" x1="8.4665" x2="8.4665" y1="1.0583" y2="15.875" gradientTransform="scale(3.7796)" gradientUnits="userSpaceOnUse">
   <stop stop-color="#3199e5" offset="0"/>
   <stop stop-color="#0a4faa" offset="1"/>
  </linearGradient>
  <linearGradient id="linearGradient10" x1="29.75" x2="29.75" y1="25" y2="47" gradientUnits="userSpaceOnUse">
   <stop stop-color="#ecf6ff" offset="0"/>
   <stop stop-color="#5a8fcb" offset="1"/>
  </linearGradient>
  <linearGradient id="linearGradient12" x1="42.25" x2="42.25" y1="18.035" y2="32.167" gradientUnits="userSpaceOnUse">
   <stop stop-color="#fedc4e" offset="0"/>
   <stop stop-color="#e3a300" offset="1"/>
  </linearGradient>
  <filter id="filter15" x="-.022792" y="-.033113" width="1.0456" height="1.0662" color-interpolation-filters="sRGB">
   <feGaussianBlur stdDeviation="0.365625"/>
  </filter>
  <linearGradient id="linearGradient16" x1="29.75" x2="29.75" y1="19.622" y2="47.877" gradientUnits="userSpaceOnUse">
   <stop stop-color="#ffffff" offset="0"/>
   <stop stop-color="#ffffff" stop-opacity=".6" offset="1"/>
  </linearGradient>
  <linearGradient id="linearGradient19" x1="42.25" x2="42.25" y1="15.5" y2="34" gradientUnits="userSpaceOnUse">
   <stop stop-color="#ffffff" offset="0"/>
   <stop stop-color="#ffffff" stop-opacity="0" offset="1"/>
  </linearGradient>
  <filter id="filter20" x="-.027" y="-.027" width="1.054" height="1.054" color-interpolation-filters="sRGB">
   <feGaussianBlur stdDeviation="0.241875"/>
  </filter>
  <filter id="filter21" x="-.2278" y="-.26038" width="1.4556" height="1.5208" color-interpolation-filters="sRGB">
   <feGaussianBlur stdDeviation="1.6324585"/>
  </filter>
  <linearGradient id="linearGradient21" x1="6.7452" x2="10.583" y1="1.0583" y2="11.312" gradientUnits="userSpaceOnUse">
   <stop stop-color="#52e3f7" offset="0"/>
   <stop stop-color="#52e3f7" stop-opacity="0" offset="1"/>
  </linearGradient>
  <linearGradient id="linearGradient22" x1="15.081" x2="12.7" y1="14.816" y2="12.171" gradientUnits="userSpaceOnUse">
   <stop stop-color="#1a9df1" offset="0"/>
   <stop stop-color="#1a9df1" stop-opacity="0" offset="1"/>
  </linearGradient>
 </defs>
 <path d="m20.26 4.0003c-5.782 0-9.7427 1.7243-12.321 4.5348-2.5651 2.7962-3.9387 6.8037-3.9387 11.341v24.248c0 4.5378 1.3734 8.5453 3.9387 11.341 2.5784 2.8103 6.5391 4.5348 12.321 4.5348h23.549c5.782 0 9.7427-1.7243 12.321-4.5348 2.5651-2.7962 3.8703-6.4352 3.8703-11.341v-23.337c0-5.9351-1.305-9.4562-3.8703-12.252-2.5784-2.8103-6.5391-4.5348-12.321-4.5348h-18.315z" fill="url(#linearGradient3)" stroke-width="3.7796"/>
 <circle cx="42.25" cy="26.25" r="10.75" fill="url(#linearGradient12)"/>
 <path d="m42.25 15.5a10.75 10.75 0 0 0-10.75 10.75 10.75 10.75 0 0 0 10.75 10.75 10.75 10.75 0 0 0 10.75-10.75 10.75 10.75 0 0 0-10.75-10.75zm0 1a9.75 9.75 0 0 1 9.75 9.75 9.75 9.75 0 0 1-9.75 9.75 9.75 9.75 0 0 1-9.75-9.75 9.75 9.75 0 0 1 9.75-9.75z" fill="url(#linearGradient19)" filter="url(#filter20)" style="mix-blend-mode:overlay"/>
 <path d="m27 20.5a10.75 10.75 0 0 0-10.721 9.9473 8.5 8.5 0 0 0-5.7793 8.0527 8.5 8.5 0 0 0 8.5 8.5h20v-0.003906a9.75 9.75 0 0 0 0.25 0.003906 9.75 9.75 0 0 0 9.75-9.75 9.75 9.75 0 0 0-9.75-9.75 9.75 9.75 0 0 0-2.0938 0.22656 10.75 10.75 0 0 0-10.156-7.2266z" fill="url(#linearGradient10)"/>
 <path d="m27 20.5a10.75 10.75 0 0 0-10.721 9.9473 8.5 8.5 0 0 0-5.7793 8.0527 8.5 8.5 0 0 0 8.5 8.5h20v-0.003906a9.75 9.75 0 0 0 0.25 0.003906 9.75 9.75 0 0 0 9.75-9.75 9.75 9.75 0 0 0-9.75-9.75 9.75 9.75 0 0 0-2.0938 0.22656 10.75 10.75 0 0 0-10.156-7.2266zm0 1c4.1567-2.9e-5 7.8485 2.6276 9.2109 6.5547a1.0001 1.0001 0 0 0 1.1602 0.64844c0.61716-0.13542 1.2471-0.20339 1.8789-0.20312 4.8443 0 8.75 3.9057 8.75 8.75 0 4.8437-3.9046 8.7489-8.748 8.75-0.0748-2.09e-4 -0.14789-0.001806-0.22266-0.003906a1.0001 1.0001 0 0 0-0.041016 0.015625l0.011719-0.011719h-20c-4.154 0-7.5-3.346-7.5-7.5 2.9e-5 -3.2208 2.0483-6.0746 5.0996-7.1055a1.0001 1.0001 0 0 0 0.67774-0.87305c0.38172-5.0976 4.6107-9.0218 9.7227-9.0215z" fill="url(#linearGradient16)" filter="url(#filter15)" stop-color="#000000" stroke-linecap="round" stroke-linejoin="round"/>
 <path d="m32.396 21.953a10.75 10.75 0 0 0-0.89648 4.2969 10.75 10.75 0 0 0 10.75 10.75 10.75 10.75 0 0 0 6.4492-2.1504 9.75 9.75 0 0 0-9.4492-7.3496 9.75 9.75 0 0 0-2.0938 0.22656 10.75 10.75 0 0 0-4.7598-5.7734z" fill="#f7e7b8" filter="url(#filter21)" style="mix-blend-mode:normal"/>
 <g transform="matrix(3.7796 0 0 3.7796 1.4097e-5 0)" filter="url(#filter8)" style="mix-blend-mode:normal">
  <path d="m5.3603 1.0583c-1.5298 0-2.5775 0.45637-3.2597 1.1999-0.67868 0.73981-1.0423 1.8002-1.0423 3.0008v6.415c0 1.2006 0.36361 2.2609 1.0423 3.0008 0.68219 0.74355 1.7299 1.1999 3.2597 1.1999h6.2305c1.5298 0 2.5775-0.45637 3.2597-1.1999 0.67868-0.73981 1.0242-1.7027 1.0242-3.0008v-6.1742c0-1.5703-0.34552-2.5018-1.0242-3.2416-0.68219-0.74355-1.7299-1.1999-3.2597-1.1999h-4.8456zm-0.00103 0.26406h6.2326c1.4772 0 2.437 0.43133 3.0644 1.1152 0.63411 0.69126 0.95341 1.5307 0.95341 3.0623v6.1742c0 1.2512-0.32181 2.1335-0.95341 2.822-0.6274 0.68381-1.5871 1.1136-3.0644 1.1136h-6.2326c-1.4772 0-2.437-0.42978-3.0644-1.1136-0.62537-0.68172-0.97253-1.6747-0.97253-2.822v-6.4145c0-1.1472 0.34717-2.1403 0.97253-2.822 0.6274-0.68381 1.5871-1.1152 3.0644-1.1152z" fill="url(#linearGradient22)"/>
  <path d="m5.3603 1.0583c-1.5298 0-2.5775 0.45637-3.2597 1.1999-0.67868 0.73981-1.0423 1.8002-1.0423 3.0008v6.415c0 1.2006 0.36361 2.2609 1.0423 3.0008 0.68219 0.74355 1.7299 1.1999 3.2597 1.1999h6.2305c1.5298 0 2.5775-0.45637 3.2597-1.1999 0.67868-0.73981 1.0242-1.7027 1.0242-3.0008v-6.1742c0-1.5703-0.34552-2.5018-1.0242-3.2416-0.68219-0.74355-1.7299-1.1999-3.2597-1.1999h-4.8456zm-0.00103 0.26406h6.2326c1.4772 0 2.437 0.43133 3.0644 1.1152 0.63411 0.69126 0.95341 1.5307 0.95341 3.0623v6.1742c0 1.2512-0.32181 2.1335-0.95341 2.822-0.6274 0.68381-1.5871 1.1136-3.0644 1.1136h-6.2326c-1.4772 0-2.437-0.42978-3.0644-1.1136-0.62537-0.68172-0.97253-1.6747-0.97253-2.822v-6.4145c0-1.1472 0.34717-2.1403 0.97253-2.822 0.6274-0.68381 1.5871-1.1152 3.0644-1.1152z" fill="url(#linearGradient21)"/>
 </g>
</svg>

<svg xmlns="http://www.w3.org/2000/svg" width="64" height="64"><defs><linearGradient id="a" x1="8.466" x2="8.466" y1="1.058" y2="15.875" gradientTransform="scale(3.7796)" gradientUnits="userSpaceOnUse"><stop offset="0" stop-color="#3199e5"/><stop offset="1" stop-color="#0a4faa"/></linearGradient><linearGradient id="e" x1="29.75" x2="29.75" y1="25" y2="47" gradientUnits="userSpaceOnUse"><stop offset="0" stop-color="#ecf6ff"/><stop offset="1" stop-color="#5a8fcb"/></linearGradient><linearGradient id="b" x1="42.25" x2="42.25" y1="18.035" y2="32.167" gradientUnits="userSpaceOnUse"><stop offset="0" stop-color="#fedc4e"/><stop offset="1" stop-color="#e3a300"/></linearGradient><linearGradient id="f" x1="29.75" x2="29.75" y1="19.622" y2="47.877" gradientUnits="userSpaceOnUse"><stop offset="0" stop-color="#fff"/><stop offset="1" stop-color="#fff" stop-opacity=".6"/></linearGradient><linearGradient id="c" x1="42.25" x2="42.25" y1="15.5" y2="34" gradientUnits="userSpaceOnUse"><stop offset="0" stop-color="#fff"/><stop offset="1" stop-color="#fff" stop-opacity="0"/></linearGradient><linearGradient id="k" x1="6.745" x2="10.583" y1="1.058" y2="11.312" gradientUnits="userSpaceOnUse"><stop offset="0" stop-color="#52e3f7"/><stop offset="1" stop-color="#52e3f7" stop-opacity="0"/></linearGradient><linearGradient id="j" x1="15.081" x2="12.7" y1="14.816" y2="12.171" gradientUnits="userSpaceOnUse"><stop offset="0" stop-color="#1a9df1"/><stop offset="1" stop-color="#1a9df1" stop-opacity="0"/></linearGradient><filter id="i" width="1.024" height="1.024" x="-.012" y="-.012" color-interpolation-filters="sRGB"><feGaussianBlur stdDeviation=".074"/></filter><filter id="g" width="1.046" height="1.066" x="-.023" y="-.033" color-interpolation-filters="sRGB"><feGaussianBlur stdDeviation=".366"/></filter><filter id="d" width="1.054" height="1.054" x="-.027" y="-.027" color-interpolation-filters="sRGB"><feGaussianBlur stdDeviation=".242"/></filter><filter id="h" width="1.456" height="1.521" x="-.228" y="-.26" color-interpolation-filters="sRGB"><feGaussianBlur stdDeviation="1.632"/></filter></defs><path fill="url(#a)" d="M20.26 4c-5.782 0-9.743 1.725-12.321 4.535C5.374 11.331 4 15.34 4 19.876v24.248c0 4.538 1.374 8.545 3.939 11.341C10.517 58.275 14.479 60 20.26 60h23.549c5.782 0 9.743-1.724 12.321-4.535C58.695 52.67 60 49.03 60 44.125V20.786c0-5.935-1.305-9.456-3.87-12.252C53.552 5.725 49.59 4 43.809 4H25.494z"/><circle cx="42.25" cy="26.25" r="10.75" fill="url(#b)"/><path fill="url(#c)" d="M42.25 15.5A10.75 10.75 0 0 0 31.5 26.25 10.75 10.75 0 0 0 42.25 37 10.75 10.75 0 0 0 53 26.25 10.75 10.75 0 0 0 42.25 15.5m0 1A9.75 9.75 0 0 1 52 26.25 9.75 9.75 0 0 1 42.25 36a9.75 9.75 0 0 1-9.75-9.75 9.75 9.75 0 0 1 9.75-9.75" filter="url(#d)" style="mix-blend-mode:overlay"/><path fill="url(#e)" d="M27 20.5a10.75 10.75 0 0 0-10.721 9.947 8.5 8.5 0 0 0-5.78 8.053A8.5 8.5 0 0 0 19 47h20v-.004l.25.004A9.75 9.75 0 0 0 49 37.25a9.75 9.75 0 0 0-9.75-9.75 9.8 9.8 0 0 0-2.093.227A10.75 10.75 0 0 0 27 20.5"/><path fill="url(#f)" d="M27 20.5a10.75 10.75 0 0 0-10.721 9.947 8.5 8.5 0 0 0-5.78 8.053A8.5 8.5 0 0 0 19 47h20v-.004l.25.004A9.75 9.75 0 0 0 49 37.25a9.75 9.75 0 0 0-9.75-9.75 9.8 9.8 0 0 0-2.093.227A10.75 10.75 0 0 0 27 20.5m0 1a9.74 9.74 0 0 1 9.21 6.555 1 1 0 0 0 1.161.648 8.8 8.8 0 0 1 1.879-.203A8.735 8.735 0 0 1 48 37.25a8.735 8.735 0 0 1-8.97 8.746l-.042.016L39 46H19a7.485 7.485 0 0 1-7.5-7.5 7.49 7.49 0 0 1 5.1-7.105 1 1 0 0 0 .677-.874A9.736 9.736 0 0 1 27 21.5" filter="url(#g)"/><path fill="#f7e7b8" d="M32.396 21.953a10.75 10.75 0 0 0-.896 4.297A10.75 10.75 0 0 0 42.25 37a10.75 10.75 0 0 0 6.449-2.15 9.75 9.75 0 0 0-9.45-7.35 9.8 9.8 0 0 0-2.093.226 10.75 10.75 0 0 0-4.76-5.773" filter="url(#h)" style="mix-blend-mode:normal"/><g filter="url(#i)" style="mix-blend-mode:normal" transform="scale(3.7796)"><path fill="url(#j)" d="M5.36 1.058c-1.53 0-2.577.457-3.26 1.2-.678.74-1.042 1.8-1.042 3.001v6.415c0 1.2.364 2.26 1.043 3 .682.744 1.73 1.2 3.26 1.2h6.23c1.53 0 2.577-.456 3.26-1.2.678-.739 1.024-1.702 1.024-3V5.5c0-1.57-.346-2.502-1.024-3.242-.683-.743-1.73-1.2-3.26-1.2H6.745zm0 .264h6.232c1.477 0 2.437.432 3.064 1.116.634.69.954 1.53.954 3.062v6.174c0 1.251-.322 2.134-.954 2.822-.627.684-1.587 1.114-3.064 1.114H5.359c-1.477 0-2.437-.43-3.064-1.114-.625-.682-.973-1.675-.973-2.822V5.26c0-1.148.348-2.14.973-2.822.627-.684 1.587-1.116 3.064-1.116"/><path fill="url(#k)" d="M5.36 1.058c-1.53 0-2.577.457-3.26 1.2-.678.74-1.042 1.8-1.042 3.001v6.415c0 1.2.364 2.26 1.043 3 .682.744 1.73 1.2 3.26 1.2h6.23c1.53 0 2.577-.456 3.26-1.2.678-.739 1.024-1.702 1.024-3V5.5c0-1.57-.346-2.502-1.024-3.242-.683-.743-1.73-1.2-3.26-1.2H6.745zm0 .264h6.232c1.477 0 2.437.432 3.064 1.116.634.69.954 1.53.954 3.062v6.174c0 1.251-.322 2.134-.954 2.822-.627.684-1.587 1.114-3.064 1.114H5.359c-1.477 0-2.437-.43-3.064-1.114-.625-.682-.973-1.675-.973-2.822V5.26c0-1.148.348-2.14.973-2.822.627-.684 1.587-1.116 3.064-1.116"/></g></svg>
